material/.icons/material/format-float-left.svg

<svg xmlns="http://www.w3.org/2000/svg" viewBox="0 0 24 24"><path d="M3 7h6v6H3V7m0-4h18v2H3V3m18 4v2H11V7h10m0 4v2H11v-2h10M3 15h14v2H3v-2m0 4h18v2H3v-2z"/></svg>

<?xml version="1.0" encoding="UTF-8"?><!DOCTYPE svg PUBLIC "-//W3C//DTD SVG 1.1//EN" "http://www.w3.org/Graphics/SVG/1.1/DTD/svg11.dtd"><svg xmlns="http://www.w3.org/2000/svg" xmlns:xlink="http://www.w3.org/1999/xlink" version="1.1" id="mdi-format-float-left" width="24" height="24" viewBox="0 0 24 24"><path d="M3,7H9V13H3V7M3,3H21V5H3V3M21,7V9H11V7H21M21,11V13H11V11H21M3,15H17V17H3V15M3,19H21V21H3V19Z" /></svg>
